src/images/Group.svg

<svg width="1038" height="947" fill="none" xmlns="http://www.w3.org/2000/svg"><path d="M531.879 24.831c.17-6.455-3.116-12.415-8.627-16.832C517.74 3.582 510.023.73 501.418.513c-8.604-.216-16.474 2.248-22.225 6.377-5.751 4.128-9.358 9.896-9.528 16.306l62.214 1.635Zm0 0c-.171 6.41-3.778 12.179-9.529 16.307m9.529-16.307-9.529 16.307m0 0c-5.751 4.128-13.621 6.592-22.225 6.376m22.225-6.376-22.225 6.376m0 0c-8.605-.216-16.322-3.068-21.834-7.486m21.834 7.486-21.834-7.486m0 0c-5.511-4.417-8.797-10.377-8.626-16.832l8.626 16.832ZM280.2 74.415c2.74 7.494.79 15.91-4.683 23.504-5.473 7.591-14.441 14.311-25.613 18.347-11.171 4.036-22.388 4.592-31.488 2.248-9.103-2.344-16.037-7.57-18.777-15.065-2.74-7.493-.791-15.91 4.683-23.503 5.473-7.591 14.441-14.311 25.613-18.347 11.171-4.036 22.388-4.592 31.488-2.248 9.103 2.344 16.037 7.57 18.777 15.064ZM1009.05 395.851v.001c-7.05 4.958-16.192 5.603-25.324 2.568-9.131-3.034-18.212-9.739-25.059-19.41-6.846-9.67-10.104-20.43-9.876-30.006.228-9.576 3.937-17.934 10.987-22.893 7.049-4.958 16.194-5.602 25.326-2.568 9.131 3.034 18.216 9.74 25.056 19.41 6.85 9.67 10.11 20.452 9.88 30.039-.23 9.587-3.94 17.944-10.99 22.859ZM884.594 162.293l-.001.002c-4.157 6.946-12.004 10.869-21.411 11.539-9.404.67-20.315-1.922-30.481-7.953-10.165-6.031-17.628-14.351-21.482-22.902-3.855-8.552-4.085-17.289.115-24.235l.001-.002c4.157-6.947 12.004-10.87 21.41-11.54 9.404-.669 20.316 1.922 30.481 7.953 10.166 6.031 17.628 14.351 21.483 22.902 3.854 8.552 4.084 17.289-.115 24.236ZM51.855 351.679l.001.001c15.483 7.698 20.102 29.808 10.152 49.512-10.038 19.703-30.702 29.076-46.104 21.375C.42 414.868-4.199 392.759 5.751 373.054c10.038-19.703 30.702-29.076 46.104-21.375ZM524.205 260.364c38.135 0 68.868 26.254 68.868 58.517 0 32.264-30.733 58.518-68.868 58.518-38.136 0-68.868-26.254-68.868-58.518 0-32.263 30.732-58.517 68.868-58.517Z" stroke="#2E65F2" stroke-opacity=".45"/><mask id="a" fill="#fff"><path d="M1037.3 542.623c-2.64-35.061-32.97-61.291-67.786-58.668-15.386 1.137-29.102 7.782-39.3 17.836l-73.588-43.804c2.637-9.355 4.132-19.147 4.132-29.377a106.17 106.17 0 0 0-14.595-53.771c32.003-22.646 42.553-52.81 46.07-70.471 7.649-3.848 14.067-9.531 18.287-16.962 15.034-25.968-.791-63.127-35.519-82.975-17.672-10.142-36.926-13.901-53.455-11.541-20.749-12.59-62.51-32.787-121.943-36.809-5.627-16.7-18.551-32.088-36.311-43.192a9360.09 9360.09 0 0 1 16.793-26.055c19.342 2.71 36.486-4.46 40.355-17.836 4.396-15.214-10.375-32.788-32.882-39.17-22.507-6.383-44.311.787-48.707 16-2.638 9.355 1.846 19.585 10.902 27.541-5.099 7.87-10.902 16.962-16.881 26.23a157.275 157.275 0 0 0-6.154-1.486c-19.342-4.197-38.333-3.41-54.773 1.486-28.31-20.022-70.072-38.645-130.384-44.853-9.935-17.662-34.464-26.667-59.609-20.46-29.101 7.17-47.916 31.914-42.113 55.346.352 1.399.703 2.71 1.231 3.934-17.496 18.449-37.717 47.389-57.763 92.592-3.605 1.311-7.209 2.71-10.814 4.372-14.331 6.557-26.639 15.3-36.662 25.268-28.134-6.907-52.488-10.667-71.566-12.765 0-5.072-1.407-9.88-4.132-13.99-10.287-15.475-36.487-16.35-58.554-1.836-22.068 14.427-31.563 38.733-21.276 54.209 10.286 15.475 36.486 16.35 58.553 1.836 5.451-3.585 10.111-7.694 13.892-12.241 16.353 1.487 38.42 4.372 64.268 10.055-9.583 18.536-11.957 38.558-5.187 56.482-30.684 23.082-53.894 46.514-69.28 70.209-8.792 13.552-13.803 25.268-16.529 34.623-2.11.612-4.22 1.399-6.33 2.273-39.475 16.088-58.026 61.816-41.322 102.21 16.09 39.082 59.17 58.755 97.766 45.465 22.947 9.88 63.214 18.623 133.285 15.913 7.297 28.066 25.233 51.935 49.235 66.973-16.265 36.897-32.53 73.532-45.894 102.997-5.363-1.224-10.814-1.836-16.529-1.836-41.498 0-75.17 33.486-75.17 74.755 0 41.268 33.672 74.755 75.17 74.755 41.498 0 75.171-33.487 75.171-74.755 0-23.52-10.902-44.416-27.871-58.143 8.617-18.973 19.518-43.28 33.41-74.581 4.396-9.967 8.792-19.934 13.1-29.727 9.231 2.448 18.902 3.672 28.837 3.672 18.375 0 35.783-4.371 51.169-12.153 48.883 47.651 89.589 70.646 116.58 81.663 8.089 44.678 47.388 78.602 94.689 78.602 53.191 0 96.271-42.842 96.271-95.739 0-12.94-2.55-25.181-7.209-36.46 14.858-41.093 20.397-105.182 22.331-140.243 21.364-8.393 39.475-23.344 51.608-42.405l70.247 41.793c-2.461 7.694-3.604 16.001-2.901 24.569 2.638 35.061 32.97 61.291 67.785 58.668 34.732-2.623 60.752-33.137 58.112-68.198l-.26.175ZM363.313 116.037c11.342 5.158 25.409 6.557 39.74 3.06 19.518-4.809 34.464-17.574 40.442-32.525 37.278 4.459 70.072 14.688 96.799 30.164-9.32 8.394-15.913 18.886-18.551 31.039-.176.962-.44 2.011-.528 2.973-64.356 9.88-114.47 29.465-144.714 43.891-14.419-10.667-33.761-16.175-54.773-15.738 15.122-30.077 29.628-49.924 41.761-62.864h-.176ZM305.99 534.404c-45.366 1.661-75.522-1.924-95.216-6.645 16.88-21.421 21.98-51.498 10.638-79.127-10.638-25.793-33.057-43.104-58.114-48.088a117.838 117.838 0 0 1 8.001-14.339c10.198-15.651 28.485-36.809 61.191-61.466 17.935 13.553 43.784 18.973 70.863 14.689 8.264 31.389 21.891 71.783 43.871 113.838-23.826 19.498-39.563 48.438-41.234 81.138Zm112.8-106.668c-16.705 0-32.53 3.584-46.861 10.054-20.133-39.082-32.793-77.028-40.442-106.318 1.758-.7 3.516-1.487 5.363-2.273 48.97-22.471 75.258-70.209 60.224-108.068 28.398-12.852 72.709-29.29 128.274-38.033 10.55 24.831 37.013 45.815 71.126 53.159 22.683 4.896 44.839 2.973 63.038-4.284 20.661 29.902 44.135 66.274 59.609 95.302-42.553 14.252-73.149 54.209-73.149 101.248 0 11.541 1.847 22.645 5.275 33.049l-124.141 45.903c-13.979-46.252-57.147-79.914-108.228-79.914l-.088.175Zm331.542 210.451c-17.496-17.924-41.937-29.028-69.104-29.028-46.333 0-84.93 32.526-94.161 75.805-22.068-10.842-52.664-30.165-88.974-64.875 20.397-19.935 33.145-47.477 33.673-78.078l135.131-50.012c19.606 26.317 50.993 43.367 86.424 43.367 3.693 0 7.385-.175 10.902-.525-2.11 30.864-6.33 71.87-13.979 103.259l.088.087Zm2.989-316.42c-1.934 0-3.956 0-5.89.175-7.473-14.777-18.288-33.924-34.113-58.843-10.814-16.962-21.628-33.05-30.156-45.465 9.231-8.394 15.825-18.798 18.463-30.951v-.263c38.069 3.235 67.697 13.815 87.391 23.257-1.494 1.749-2.813 3.673-4.044 5.684-15.034 25.967.791 63.126 35.519 82.974 12.66 7.257 26.024 11.191 38.684 12.065-4.483 12.328-13.627 28.066-31.914 40.657-19.254-18.186-45.278-29.29-73.94-29.29Z"/></mask><path d="M1037.3 542.623c-2.64-35.061-32.97-61.291-67.786-58.668-15.386 1.137-29.102 7.782-39.3 17.836l-73.588-43.804c2.637-9.355 4.132-19.147 4.132-29.377a106.17 106.17 0 0 0-14.595-53.771c32.003-22.646 42.553-52.81 46.07-70.471 7.649-3.848 14.067-9.531 18.287-16.962 15.034-25.968-.791-63.127-35.519-82.975-17.672-10.142-36.926-13.901-53.455-11.541-20.749-12.59-62.51-32.787-121.943-36.809-5.627-16.7-18.551-32.088-36.311-43.192a9360.09 9360.09 0 0 1 16.793-26.055c19.342 2.71 36.486-4.46 40.355-17.836 4.396-15.214-10.375-32.788-32.882-39.17-22.507-6.383-44.311.787-48.707 16-2.638 9.355 1.846 19.585 10.902 27.541-5.099 7.87-10.902 16.962-16.881 26.23a157.275 157.275 0 0 0-6.154-1.486c-19.342-4.197-38.333-3.41-54.773 1.486-28.31-20.022-70.072-38.645-130.384-44.853-9.935-17.662-34.464-26.667-59.609-20.46-29.101 7.17-47.916 31.914-42.113 55.346.352 1.399.703 2.71 1.231 3.934-17.496 18.449-37.717 47.389-57.763 92.592-3.605 1.311-7.209 2.71-10.814 4.372-14.331 6.557-26.639 15.3-36.662 25.268-28.134-6.907-52.488-10.667-71.566-12.765 0-5.072-1.407-9.88-4.132-13.99-10.287-15.475-36.487-16.35-58.554-1.836-22.068 14.427-31.563 38.733-21.276 54.209 10.286 15.475 36.486 16.35 58.553 1.836 5.451-3.585 10.111-7.694 13.892-12.241 16.353 1.487 38.42 4.372 64.268 10.055-9.583 18.536-11.957 38.558-5.187 56.482-30.684 23.082-53.894 46.514-69.28 70.209-8.792 13.552-13.803 25.268-16.529 34.623-2.11.612-4.22 1.399-6.33 2.273-39.475 16.088-58.026 61.816-41.322 102.21 16.09 39.082 59.17 58.755 97.766 45.465 22.947 9.88 63.214 18.623 133.285 15.913 7.297 28.066 25.233 51.935 49.235 66.973-16.265 36.897-32.53 73.532-45.894 102.997-5.363-1.224-10.814-1.836-16.529-1.836-41.498 0-75.17 33.486-75.17 74.755 0 41.268 33.672 74.755 75.17 74.755 41.498 0 75.171-33.487 75.171-74.755 0-23.52-10.902-44.416-27.871-58.143 8.617-18.973 19.518-43.28 33.41-74.581 4.396-9.967 8.792-19.934 13.1-29.727 9.231 2.448 18.902 3.672 28.837 3.672 18.375 0 35.783-4.371 51.169-12.153 48.883 47.651 89.589 70.646 116.58 81.663 8.089 44.678 47.388 78.602 94.689 78.602 53.191 0 96.271-42.842 96.271-95.739 0-12.94-2.55-25.181-7.209-36.46 14.858-41.093 20.397-105.182 22.331-140.243 21.364-8.393 39.475-23.344 51.608-42.405l70.247 41.793c-2.461 7.694-3.604 16.001-2.901 24.569 2.638 35.061 32.97 61.291 67.785 58.668 34.732-2.623 60.752-33.137 58.112-68.198l-.26.175ZM363.313 116.037c11.342 5.158 25.409 6.557 39.74 3.06 19.518-4.809 34.464-17.574 40.442-32.525 37.278 4.459 70.072 14.688 96.799 30.164-9.32 8.394-15.913 18.886-18.551 31.039-.176.962-.44 2.011-.528 2.973-64.356 9.88-114.47 29.465-144.714 43.891-14.419-10.667-33.761-16.175-54.773-15.738 15.122-30.077 29.628-49.924 41.761-62.864h-.176ZM305.99 534.404c-45.366 1.661-75.522-1.924-95.216-6.645 16.88-21.421 21.98-51.498 10.638-79.127-10.638-25.793-33.057-43.104-58.114-48.088a117.838 117.838 0 0 1 8.001-14.339c10.198-15.651 28.485-36.809 61.191-61.466 17.935 13.553 43.784 18.973 70.863 14.689 8.264 31.389 21.891 71.783 43.871 113.838-23.826 19.498-39.563 48.438-41.234 81.138Zm112.8-106.668c-16.705 0-32.53 3.584-46.861 10.054-20.133-39.082-32.793-77.028-40.442-106.318 1.758-.7 3.516-1.487 5.363-2.273 48.97-22.471 75.258-70.209 60.224-108.068 28.398-12.852 72.709-29.29 128.274-38.033 10.55 24.831 37.013 45.815 71.126 53.159 22.683 4.896 44.839 2.973 63.038-4.284 20.661 29.902 44.135 66.274 59.609 95.302-42.553 14.252-73.149 54.209-73.149 101.248 0 11.541 1.847 22.645 5.275 33.049l-124.141 45.903c-13.979-46.252-57.147-79.914-108.228-79.914l-.088.175Zm331.542 210.451c-17.496-17.924-41.937-29.028-69.104-29.028-46.333 0-84.93 32.526-94.161 75.805-22.068-10.842-52.664-30.165-88.974-64.875 20.397-19.935 33.145-47.477 33.673-78.078l135.131-50.012c19.606 26.317 50.993 43.367 86.424 43.367 3.693 0 7.385-.175 10.902-.525-2.11 30.864-6.33 71.87-13.979 103.259l.088.087Zm2.989-316.42c-1.934 0-3.956 0-5.89.175-7.473-14.777-18.288-33.924-34.113-58.843-10.814-16.962-21.628-33.05-30.156-45.465 9.231-8.394 15.825-18.798 18.463-30.951v-.263c38.069 3.235 67.697 13.815 87.391 23.257-1.494 1.749-2.813 3.673-4.044 5.684-15.034 25.967.791 63.126 35.519 82.974 12.66 7.257 26.024 11.191 38.684 12.065-4.483 12.328-13.627 28.066-31.914 40.657-19.254-18.186-45.278-29.29-73.94-29.29Z" stroke="#2E65F2" stroke-opacity=".45" stroke-width="2" mask="url(#a)"/><path d="M931.912 747.829c0 31.447-25.635 56.944-57.263 56.944-31.628 0-57.263-25.497-57.263-56.944 0-31.446 25.635-56.943 57.263-56.943 31.628 0 57.263 25.497 57.263 56.943ZM153.915 670.275c0 28.936-23.587 52.397-52.69 52.397-29.103 0-52.691-23.461-52.691-52.397 0-28.935 23.588-52.397 52.691-52.397s52.69 23.462 52.69 52.397ZM616.369 882.125c0 35.55-28.981 64.375-64.736 64.375s-64.736-28.825-64.736-64.375c0-35.551 28.981-64.376 64.736-64.376s64.736 28.825 64.736 64.376Z" stroke="#2E65F2" stroke-opacity=".45"/></svg>

<svg width="1038" height="947" viewBox="0 0 1038 947" fill="none" xmlns="http://www.w3.org/2000/svg">
<path d="M531.879 24.831C532.049 18.376 528.763 12.4163 523.252 7.9992C517.74 3.58168 510.023 0.729216 501.418 0.51313C492.814 0.297047 484.944 2.76147 479.193 6.88952C473.442 11.0176 469.835 16.7864 469.665 23.1963L531.879 24.831ZM531.879 24.831C531.708 31.2409 528.101 37.0097 522.35 41.1378M531.879 24.831L522.35 41.1378M522.35 41.1378C516.599 45.2659 508.729 47.7303 500.125 47.5142M522.35 41.1378L500.125 47.5142M500.125 47.5142C491.52 47.2981 483.803 44.4457 478.291 40.0281M500.125 47.5142L478.291 40.0281M478.291 40.0281C472.78 35.611 469.494 29.6514 469.665 23.1964L478.291 40.0281Z" stroke="#2E65F2" stroke-opacity="0.45"/>
<path d="M280.2 74.4153C282.94 81.9086 280.99 90.3258 275.517 97.9188C270.044 105.51 261.076 112.23 249.904 116.266C238.733 120.302 227.516 120.858 218.416 118.514C209.313 116.17 202.379 110.944 199.639 103.449C196.899 95.956 198.848 87.5388 204.322 79.9459C209.795 72.3549 218.763 65.635 229.935 61.5988C241.106 57.5629 252.323 57.007 261.423 59.3505C270.526 61.6947 277.46 66.9208 280.2 74.4153Z" stroke="#2E65F2" stroke-opacity="0.45"/>
<path d="M1009.05 395.851L1009.05 395.852C1002 400.81 992.858 401.455 983.726 398.42C974.595 395.386 965.514 388.681 958.667 379.01C951.821 369.34 948.563 358.58 948.791 349.004C949.019 339.428 952.728 331.07 959.778 326.111C966.827 321.153 975.972 320.509 985.104 323.543C994.235 326.577 1003.32 333.283 1010.16 342.953C1017.01 352.623 1020.27 363.405 1020.04 372.992C1019.81 382.579 1016.1 390.936 1009.05 395.851Z" stroke="#2E65F2" stroke-opacity="0.45"/>
<path d="M884.594 162.293L884.593 162.295C880.436 169.241 872.589 173.164 863.182 173.834C853.778 174.504 842.867 171.912 832.701 165.881C822.536 159.85 815.073 151.53 811.219 142.979C807.364 134.427 807.134 125.69 811.334 118.744L811.335 118.742C815.492 111.795 823.339 107.872 832.745 107.202C842.149 106.533 853.061 109.124 863.226 115.155C873.392 121.186 880.854 129.506 884.709 138.057C888.563 146.609 888.793 155.346 884.594 162.293Z" stroke="#2E65F2" stroke-opacity="0.45"/>
<path d="M51.8555 351.679L51.8564 351.68C67.3395 359.378 71.9579 381.488 62.0076 401.192C51.9701 420.895 31.3058 430.268 15.9043 422.567L15.9033 422.567C0.420295 414.868 -4.19816 392.759 5.75212 373.054C15.7895 353.351 36.4539 343.978 51.8555 351.679Z" stroke="#2E65F2" stroke-opacity="0.45"/>
<path d="M524.205 260.364C562.34 260.364 593.073 286.618 593.073 318.881C593.073 351.145 562.34 377.399 524.205 377.399C486.069 377.399 455.337 351.145 455.337 318.881C455.337 286.618 486.069 260.364 524.205 260.364Z" stroke="#2E65F2" stroke-opacity="0.45"/>
<mask id="path-7-inside-1_233_576" fill="white">
<path d="M1037.3 542.623C1034.66 507.562 1004.33 481.332 969.514 483.955C954.128 485.092 940.412 491.737 930.214 501.791L856.626 457.987C859.263 448.632 860.758 438.84 860.758 428.61C860.758 409.025 855.395 390.577 846.163 374.839C878.166 352.193 888.716 322.029 892.233 304.368C899.882 300.52 906.3 294.837 910.52 287.406C925.554 261.438 909.729 224.279 875.001 204.431C857.329 194.289 838.075 190.53 821.546 192.89C800.797 180.3 759.036 160.103 699.603 156.081C693.976 139.381 681.052 123.993 663.292 112.889C669.359 103.446 675.161 94.4406 680.085 86.834C699.427 89.5444 716.571 82.3749 720.44 68.9976C724.836 53.7843 710.065 36.2102 687.558 29.8276C665.051 23.445 643.247 30.6145 638.851 45.8278C636.213 55.1832 640.697 65.4129 649.753 73.3693C644.654 81.2383 638.851 90.3313 632.872 99.5992C630.85 99.0746 628.74 98.55 626.718 98.1128C607.376 93.9161 588.385 94.7029 571.945 99.5992C543.635 79.577 501.873 60.9538 441.561 54.746C431.626 37.0845 407.097 28.0789 381.952 34.2867C352.851 41.4562 334.036 66.1997 339.839 89.6318C340.191 91.0307 340.542 92.3423 341.07 93.5663C323.574 112.015 303.353 140.955 283.307 186.158C279.702 187.469 276.098 188.868 272.493 190.53C258.162 197.087 245.854 205.83 235.831 215.798C207.697 208.891 183.343 205.131 164.265 203.033C164.265 197.961 162.858 193.153 160.133 189.043C149.846 173.568 123.646 172.693 101.579 187.207C79.5112 201.634 70.016 225.94 80.3025 241.416C90.589 256.891 116.789 257.766 138.856 243.252C144.307 239.667 148.967 235.558 152.748 231.011C169.101 232.498 191.168 235.383 217.016 241.066C207.433 259.602 205.059 279.624 211.829 297.548C181.145 320.63 157.935 344.062 142.549 367.757C133.757 381.309 128.746 393.025 126.02 402.38C123.91 402.992 121.8 403.779 119.69 404.653C80.2146 420.741 61.6637 466.469 78.3683 506.863C94.4574 545.945 137.538 565.618 176.134 552.328C199.081 562.208 239.348 570.951 309.419 568.241C316.716 596.307 334.652 620.176 358.654 635.214C342.389 672.111 326.124 708.746 312.76 738.211C307.397 736.987 301.946 736.375 296.231 736.375C254.733 736.375 221.061 769.861 221.061 811.13C221.061 852.398 254.733 885.885 296.231 885.885C337.729 885.885 371.402 852.398 371.402 811.13C371.402 787.61 360.5 766.714 343.531 752.987C352.148 734.014 363.049 709.707 376.941 678.406C381.337 668.439 385.733 658.472 390.041 648.679C399.272 651.127 408.943 652.351 418.878 652.351C437.253 652.351 454.661 647.98 470.047 640.198C518.93 687.849 559.636 710.844 586.627 721.861C594.716 766.539 634.015 800.463 681.316 800.463C734.507 800.463 777.587 757.621 777.587 704.724C777.587 691.784 775.037 679.543 770.378 668.264C785.236 627.171 790.775 563.082 792.709 528.021C814.073 519.628 832.184 504.677 844.317 485.616L914.564 527.409C912.103 535.103 910.96 543.41 911.663 551.978C914.301 587.039 944.633 613.269 979.448 610.646C1014.18 608.023 1040.2 577.509 1037.56 542.448L1037.3 542.623ZM363.313 116.037C374.655 121.195 388.722 122.594 403.053 119.097C422.571 114.288 437.517 101.523 443.495 86.5717C480.773 91.0308 513.567 101.26 540.294 116.736C530.974 125.13 524.381 135.622 521.743 147.775C521.567 148.737 521.303 149.786 521.215 150.748C456.859 160.628 406.745 180.213 376.501 194.639C362.082 183.972 342.74 178.464 321.728 178.901C336.85 148.824 351.356 128.977 363.489 116.037H363.313ZM305.99 534.404C260.624 536.065 230.468 532.48 210.774 527.759C227.654 506.338 232.754 476.261 221.412 448.632C210.774 422.839 188.355 405.528 163.298 400.544C165.32 396.26 167.87 391.451 171.299 386.205C181.497 370.554 199.784 349.396 232.49 324.739C250.425 338.292 276.274 343.712 303.353 339.428C311.617 370.817 325.244 411.211 347.224 453.266C323.398 472.764 307.661 501.704 305.99 534.404ZM418.79 427.736C402.085 427.736 386.26 431.32 371.929 437.79C351.796 398.708 339.136 360.762 331.487 331.472C333.245 330.772 335.003 329.985 336.85 329.199C385.82 306.728 412.108 258.99 397.074 221.131C425.472 208.279 469.783 191.841 525.348 183.098C535.898 207.929 562.361 228.913 596.474 236.257C619.157 241.153 641.313 239.23 659.512 231.973C680.173 261.875 703.647 298.247 719.121 327.275C676.568 341.527 645.972 381.484 645.972 428.523C645.972 440.064 647.819 451.168 651.247 461.572L527.106 507.475C513.127 461.223 469.959 427.561 418.878 427.561L418.79 427.736ZM750.332 638.187C732.836 620.263 708.395 609.159 681.228 609.159C634.895 609.159 596.298 641.685 587.067 684.964C564.999 674.122 534.403 654.799 498.093 620.089C518.49 600.154 531.238 572.612 531.766 542.011L666.897 491.999C686.503 518.316 717.89 535.366 753.321 535.366C757.014 535.366 760.706 535.191 764.223 534.841C762.113 565.705 757.893 606.711 750.244 638.1L750.332 638.187ZM753.321 321.767C751.387 321.767 749.365 321.767 747.431 321.942C739.958 307.165 729.143 288.018 713.318 263.099C702.504 246.137 691.69 230.049 683.162 217.634C692.393 209.24 698.987 198.836 701.625 186.683C701.625 186.595 701.625 186.508 701.625 186.42C739.694 189.655 769.322 200.235 789.016 209.677C787.522 211.426 786.203 213.35 784.972 215.361C769.938 241.328 785.763 278.487 820.491 298.335C833.151 305.592 846.515 309.526 859.175 310.4C854.692 322.728 845.548 338.466 827.261 351.057C808.007 332.871 781.983 321.767 753.321 321.767Z"/>
</mask>
<path d="M1037.3 542.623C1034.66 507.562 1004.33 481.332 969.514 483.955C954.128 485.092 940.412 491.737 930.214 501.791L856.626 457.987C859.263 448.632 860.758 438.84 860.758 428.61C860.758 409.025 855.395 390.577 846.163 374.839C878.166 352.193 888.716 322.029 892.233 304.368C899.882 300.52 906.3 294.837 910.52 287.406C925.554 261.438 909.729 224.279 875.001 204.431C857.329 194.289 838.075 190.53 821.546 192.89C800.797 180.3 759.036 160.103 699.603 156.081C693.976 139.381 681.052 123.993 663.292 112.889C669.359 103.446 675.161 94.4406 680.085 86.834C699.427 89.5444 716.571 82.3749 720.44 68.9976C724.836 53.7843 710.065 36.2102 687.558 29.8276C665.051 23.445 643.247 30.6145 638.851 45.8278C636.213 55.1832 640.697 65.4129 649.753 73.3693C644.654 81.2383 638.851 90.3313 632.872 99.5992C630.85 99.0746 628.74 98.55 626.718 98.1128C607.376 93.9161 588.385 94.7029 571.945 99.5992C543.635 79.577 501.873 60.9538 441.561 54.746C431.626 37.0845 407.097 28.0789 381.952 34.2867C352.851 41.4562 334.036 66.1997 339.839 89.6318C340.191 91.0307 340.542 92.3423 341.07 93.5663C323.574 112.015 303.353 140.955 283.307 186.158C279.702 187.469 276.098 188.868 272.493 190.53C258.162 197.087 245.854 205.83 235.831 215.798C207.697 208.891 183.343 205.131 164.265 203.033C164.265 197.961 162.858 193.153 160.133 189.043C149.846 173.568 123.646 172.693 101.579 187.207C79.5112 201.634 70.016 225.94 80.3025 241.416C90.589 256.891 116.789 257.766 138.856 243.252C144.307 239.667 148.967 235.558 152.748 231.011C169.101 232.498 191.168 235.383 217.016 241.066C207.433 259.602 205.059 279.624 211.829 297.548C181.145 320.63 157.935 344.062 142.549 367.757C133.757 381.309 128.746 393.025 126.02 402.38C123.91 402.992 121.8 403.779 119.69 404.653C80.2146 420.741 61.6637 466.469 78.3683 506.863C94.4574 545.945 137.538 565.618 176.134 552.328C199.081 562.208 239.348 570.951 309.419 568.241C316.716 596.307 334.652 620.176 358.654 635.214C342.389 672.111 326.124 708.746 312.76 738.211C307.397 736.987 301.946 736.375 296.231 736.375C254.733 736.375 221.061 769.861 221.061 811.13C221.061 852.398 254.733 885.885 296.231 885.885C337.729 885.885 371.402 852.398 371.402 811.13C371.402 787.61 360.5 766.714 343.531 752.987C352.148 734.014 363.049 709.707 376.941 678.406C381.337 668.439 385.733 658.472 390.041 648.679C399.272 651.127 408.943 652.351 418.878 652.351C437.253 652.351 454.661 647.98 470.047 640.198C518.93 687.849 559.636 710.844 586.627 721.861C594.716 766.539 634.015 800.463 681.316 800.463C734.507 800.463 777.587 757.621 777.587 704.724C777.587 691.784 775.037 679.543 770.378 668.264C785.236 627.171 790.775 563.082 792.709 528.021C814.073 519.628 832.184 504.677 844.317 485.616L914.564 527.409C912.103 535.103 910.96 543.41 911.663 551.978C914.301 587.039 944.633 613.269 979.448 610.646C1014.18 608.023 1040.2 577.509 1037.56 542.448L1037.3 542.623ZM363.313 116.037C374.655 121.195 388.722 122.594 403.053 119.097C422.571 114.288 437.517 101.523 443.495 86.5717C480.773 91.0308 513.567 101.26 540.294 116.736C530.974 125.13 524.381 135.622 521.743 147.775C521.567 148.737 521.303 149.786 521.215 150.748C456.859 160.628 406.745 180.213 376.501 194.639C362.082 183.972 342.74 178.464 321.728 178.901C336.85 148.824 351.356 128.977 363.489 116.037H363.313ZM305.99 534.404C260.624 536.065 230.468 532.48 210.774 527.759C227.654 506.338 232.754 476.261 221.412 448.632C210.774 422.839 188.355 405.528 163.298 400.544C165.32 396.26 167.87 391.451 171.299 386.205C181.497 370.554 199.784 349.396 232.49 324.739C250.425 338.292 276.274 343.712 303.353 339.428C311.617 370.817 325.244 411.211 347.224 453.266C323.398 472.764 307.661 501.704 305.99 534.404ZM418.79 427.736C402.085 427.736 386.26 431.32 371.929 437.79C351.796 398.708 339.136 360.762 331.487 331.472C333.245 330.772 335.003 329.985 336.85 329.199C385.82 306.728 412.108 258.99 397.074 221.131C425.472 208.279 469.783 191.841 525.348 183.098C535.898 207.929 562.361 228.913 596.474 236.257C619.157 241.153 641.313 239.23 659.512 231.973C680.173 261.875 703.647 298.247 719.121 327.275C676.568 341.527 645.972 381.484 645.972 428.523C645.972 440.064 647.819 451.168 651.247 461.572L527.106 507.475C513.127 461.223 469.959 427.561 418.878 427.561L418.79 427.736ZM750.332 638.187C732.836 620.263 708.395 609.159 681.228 609.159C634.895 609.159 596.298 641.685 587.067 684.964C564.999 674.122 534.403 654.799 498.093 620.089C518.49 600.154 531.238 572.612 531.766 542.011L666.897 491.999C686.503 518.316 717.89 535.366 753.321 535.366C757.014 535.366 760.706 535.191 764.223 534.841C762.113 565.705 757.893 606.711 750.244 638.1L750.332 638.187ZM753.321 321.767C751.387 321.767 749.365 321.767 747.431 321.942C739.958 307.165 729.143 288.018 713.318 263.099C702.504 246.137 691.69 230.049 683.162 217.634C692.393 209.24 698.987 198.836 701.625 186.683C701.625 186.595 701.625 186.508 701.625 186.42C739.694 189.655 769.322 200.235 789.016 209.677C787.522 211.426 786.203 213.35 784.972 215.361C769.938 241.328 785.763 278.487 820.491 298.335C833.151 305.592 846.515 309.526 859.175 310.4C854.692 322.728 845.548 338.466 827.261 351.057C808.007 332.871 781.983 321.767 753.321 321.767Z" stroke="#2E65F2" stroke-opacity="0.45" stroke-width="2" mask="url(#path-7-inside-1_233_576)"/>
<path d="M931.912 747.829C931.912 779.276 906.277 804.773 874.649 804.773C843.021 804.773 817.386 779.276 817.386 747.829C817.386 716.383 843.021 690.886 874.649 690.886C906.277 690.886 931.912 716.383 931.912 747.829Z" stroke="#2E65F2" stroke-opacity="0.45"/>
<path d="M153.915 670.275C153.915 699.211 130.328 722.672 101.225 722.672C72.1216 722.672 48.5337 699.211 48.5337 670.275C48.5337 641.34 72.1216 617.878 101.225 617.878C130.328 617.878 153.915 641.34 153.915 670.275Z" stroke="#2E65F2" stroke-opacity="0.45"/>
<path d="M616.369 882.125C616.369 917.675 587.388 946.5 551.633 946.5C515.878 946.5 486.897 917.675 486.897 882.125C486.897 846.574 515.878 817.749 551.633 817.749C587.388 817.749 616.369 846.574 616.369 882.125Z" stroke="#2E65F2" stroke-opacity="0.45"/>
</svg>
